!!!!SEGMENT: pl-cz--iii-107--001-003_dankowski-adalbert--vesperae-es-iudicabit.krn
!!!cenid: 18xx:763
!!!COM: Dankowski, Adalbert
!!!COM-rismID: pe30000793
!!!CDT: ~1760-~1836
!!!CNT: Polish
!!!OPR: Vesperae Es
!!!OTL: Iudicabit
!!!OMV: 003
!!!PDT: 1825
!!!AGN: Sacred; Vespers
!!!YEC: Copyright 2022 Narodowy Instytut Fryderyka Chopina (https://polishscores.org)
!!!YEM: License CC-BY-4.0 (https://creativecommons.org/licenses/by/4.0)
!!!SMS-siglum: PL-CZ
!!!SMS-shelfmark: III-107
!!!SMS-shelfwork: 001-003 M
!!!SMS-variant:
!!!SMS-altvar:
!!!NIFC-rismSourceID: 300000115
!!!NIFC-rismChildID: 300000115
!!!NIFC-islandoraID: pl-cz:34263
!!!URL-pdf-islandora: https://repozytorium.nifc.pl/islandora/object/pl-cz%3A34263/datastream/PDF/view
!!!URL-scan: https://polish.musicsources.pl/pl/lokalizacje/galeria/rekopisy/6825/1 @EN{Scan on Polish Music Sources Website} @PL{Skany w portalu Dziedzictwo Muzyki Polskiej w otwartym dostępie}
!!!IIIF:
!!!ONB-nifc: UWAGA: części Vesperae: Dixit Dominus, Tecum principium, Iudicabit, De torrente, Gloria patri, Sicut erat, Magnificat, Et exsultavit, Quia fecit, Deposuit potentes, Gloria patri, Sicut erat
!!!AIN: 1 alto 1 clars 2 cor 2 empty 1 organ 1 soprn 1 tenor 2 violn
!!!key:
**kern	**kern	**dynam	**kern	**dynam	**kern	**text	**kern	**text	**kern	**text	**kern	**text	**kern	**kern	**kern	**kern
*part11	*part10	*	*part9	*	*part8	*	*part7	*	*part6	*	*part5	*	*part4	*part3	*part2	*part1
*staff11	*staff10	*	*staff9	*	*staff8	*	*staff7	*	*staff6	*	*staff5	*	*staff4	*staff3	*staff2	*staff1
*Iorgan	*Ivioln	*	*Ivioln	*	*Iempty	*	*Itenor	*	*Ialto	*	*Isoprn	*	*Icor	*Icor	*Iempty	*Iclars
*I"Organo.	*I"Violino Secondo.	*	*I"Violino Primo	*	*I"Baſso	*	*I"Tenore	*	*I"Alto!	*	*I"Soprano.	*	*I"Corno Secondo in Dis Obligato.	*I"Corno Prymo in Dis Obligato	*I"Clarinetto Secundo in Dis	*I"Clarinetto Primo. in Dis.
*I'org	*I'vl II	*	*I'vl I	*	*I'B	*	*I'T	*	*I'A	*	*I'S	*	*I'cor II	*I'cor I	*I'cl II	*I'cl I
*clefF4	*clefG2	*	*clefG2	*	*clefF4	*	*clefC4	*	*clefC3	*	*clefC1	*	*clefG2	*clefG2	*clefG2	*clefG2
*	*	*	*	*	*	*	*	*	*	*	*	*	*ITrd5c9	*ITrd5c9	*ITrd1c2	*ITrd1c2
*k[b-e-]	*k[b-e-]	*	*k[b-e-]	*	*k[b-e-]	*	*k[]	*	*k[b-e-]	*	*k[]	*	*k[b-e-]	*k[b-e-]	*k[b-e-]	*k[b-e-]
*g:	*g:	*	*g:	*	*g:	*	*g:	*	*g:	*	*g:	*	*g:	*g:	*g:	*g:
*M4/4	*M4/4	*	*M4/4	*	*M4/4	*	*M4/4	*	*M4/4	*	*M4/4	*	*M4/4	*M4/4	*M4/4	*M4/4
*met(c)	*met(c)	*	*met(c)	*	*met(c)	*	*met(c)	*	*met(c)	*	*met(c)	*	*met(c)	*met(c)	*met(c)	*met(c)
=1	=1	=1	=1	=1	=1	=1	=1	=1	=1	=1	=1	=1	=1	=1	=1	=1
*2\right	*	*	*	*	*	*	*	*	*	*	*	*	*	*	*	*
!!LO:TX:a:t=P:problem:all\right, middle or left:global
!LO:TX:a:Bi:t=Solo	!	!	!LO:TX:a:t=P:problem=oznaczenie metryczne C z +	!	!	!	!	!	!	!	!LO:TX:a:t=P:problem=błędnie - brak znaków przykluczowych	!	!	!	!LO:TX:a:t=P:problem=partia błędnie podpisana [powinna być in B♭]	!
!	!	!	!	!	!	!	!LO:TX:a:t=P:problem=błędnie - brak znaków przykluczowych	!	!	!	!	!	!	!	!	!LO:TX:a:t=P:problem=partia błędnie podpisana [powinna być in B♭]
!	!	!	!	!	!LO:TX:a:t=2	!	!LO:TX:a:t=2	!	!LO:TX:a:t=2.	!	!LO:TX:b:t=2	!	!	!	!LO:TX:a:Bi:t=4.	!LO:TX:a:Bi:t=4.
!	!	!	!	!	!	!	!	!	!	!	!	!	!LO:TX:a:B:t=Judicabit Tacet.	!LO:TX:a:B:t=Judicabit Tacet.	!	!
!LO:TX:a:B:t=Adagio	!LO:TX:a:B:t=Adagio.	!	!LO:TX:a:B:t=Adagio	!	!LO:TX:a:B:t=adagio	!	!LO:TX:a:B:t=Adagio	!	!LO:TX:a:B:t=Adagio.	!	!LO:TX:a:B:t=Adagio	!	!	!	!LO:TX:a:B:t=Adagio	!LO:TX:a:B:t=Adagio.
8G\L	(16gg\LL	.	16gg\LL	.	1r	.	1r	.	1r	.	1r	.	1ryy	1ryy	1r	1r
.	16dd\JJ)	.	16dd\JJ	.	.	.	.	.	.	.	.	.	.	.	.	.
8G\	16r	.	16r	.	.	.	.	.	.	.	.	.	.	.	.	.
.	16g/	.	16g/	.	.	.	.	.	.	.	.	.	.	.	.	.
8G\	(16b-\LL	.	(16b-\LL	.	.	.	.	.	.	.	.	.	.	.	.	.
.	16dd\)	.	16dd\)	.	.	.	.	.	.	.	.	.	.	.	.	.
8G\J	(16gg\	.	(16gg\	.	.	.	.	.	.	.	.	.	.	.	.	.
.	16bb-\JJ)	.	16bb-\JJ)	.	.	.	.	.	.	.	.	.	.	.	.	.
*tremolo	*	*	*	*	*	*	*	*	*	*	*	*	*	*	*	*
8F#X\L	(16aa\LL	.	16aa\LL	.	.	.	.	.	.	.	.	.	.	.	.	.
.	16dd\JJ)	.	16dd\JJ	.	.	.	.	.	.	.	.	.	.	.	.	.
8F#X\	16r	.	16r	.	.	.	.	.	.	.	.	.	.	.	.	.
.	16f#X/	.	16f#X/	.	.	.	.	.	.	.	.	.	.	.	.	.
8F#X\	(16a\LL	.	16a\LL	.	.	.	.	.	.	.	.	.	.	.	.	.
.	16dd\)	.	16dd\	.	.	.	.	.	.	.	.	.	.	.	.	.
!	!LO:SIC:v:s=16ff#\	!	!	!	!	!	!	!	!	!	!	!	!	!	!	!
8F#X\J	(16ff\	.	16ff#X\	.	.	.	.	.	.	.	.	.	.	.	.	.
.	16aa\JJ)	.	16aa\JJ	.	.	.	.	.	.	.	.	.	.	.	.	.
*Xtremolo	*	*	*	*	*	*	*	*	*	*	*	*	*	*	*	*
=2	=2	=2	=2	=2	=2	=2	=2	=2	=2	=2	=2	=2	=2	=2	=2	=2
8G\L	(16gg\LL	.	16gg\LL	.	1r	.	1r	.	1r	.	1r	.	1ryy	1ryy	1r	1r
.	16dd\JJ)	.	16dd\JJ	.	.	.	.	.	.	.	.	.	.	.	.	.
8G\	16r	.	16r	.	.	.	.	.	.	.	.	.	.	.	.	.
.	(16bb-\LL	.	16bb-\	.	.	.	.	.	.	.	.	.	.	.	.	.
8F#X\	16aa\)	.	16aa\LL	.	.	.	.	.	.	.	.	.	.	.	.	.
.	16dd'\JJ	.	16dd\JJ	.	.	.	.	.	.	.	.	.	.	.	.	.
8F#\J	16r	.	16r	.	.	.	.	.	.	.	.	.	.	.	.	.
.	16aa'\LL	.	16ccc\	.	.	.	.	.	.	.	.	.	.	.	.	.
!LO:TX:a:t=P:problem=mixed beam	!	!	!	!	!	!	!	!	!	!	!	!	!	!	!	!
8G\L	(16gg\	.	16bb-\LL	.	.	.	.	.	.	.	.	.	.	.	.	.
.	16bb-\JJ)	.	16ddd\	.	.	.	.	.	.	.	.	.	.	.	.	.
8GG\	(16b-\LL	.	16gg\	.	.	.	.	.	.	.	.	.	.	.	.	.
.	16dd\JJ)	.	16bb-\JJ	.	.	.	.	.	.	.	.	.	.	.	.	.
8D\	(16dd\LL	.	16bb-\LL	.	.	.	.	.	.	.	.	.	.	.	.	.
.	16cc\	.	16aa\	.	.	.	.	.	.	.	.	.	.	.	.	.
8DD\J	16b-\	.	16gg\	.	.	.	.	.	.	.	.	.	.	.	.	.
!	!	!	!LO:TX:b:Bi:t=Verte Cito	!	!	!	!	!	!	!	!	!	!	!	!	!
.	16a\JJ)	.	16ff#X\JJ	.	.	.	.	.	.	.	.	.	.	.	.	.
=3	=3	=3	=3	=3	=3	=3	=3	=3	=3	=3	=3	=3	=3	=3	=3	=3
!LO:TX:a:t=P:problem=mixed beam	!	!	!	!	!	!	!	!	!	!	!	!	!	!	!	!
!LO:TX:a:Bi:t=Tutti.	!	!	!	!	!	!	!	!	!	!	!	!	!	!	!	!
!	!	!	!	!	!	!	!LO:SIC:v:s=4B-\	!	!	!	!	!	!	!	!	!
8GG/L	(16b-\LL	f	(16gg\LL	.	4G\	Ju-	4B\	Ju-	4b-\	Ju-	4dd\	Ju-	1ryy	1ryy	1r	1r
.	16dd\JJ)	.	16dd\JJ)	.	.	.	.	.	.	.	.	.	.	.	.	.
8G/	16r	.	16r	.	.	.	.	.	.	.	.	.	.	.	.	.
.	16g/	.	16g/	.	.	.	.	.	.	.	.	.	.	.	.	.
!	!	!	!LO:TX:a:t=P:problem=niejednoznaczny zapis łuku	!	!	!	!	!	!	!	!	!	!	!	!	!
!	!	!	!	!	!	!	!LO:SIC:v:s=4B-\	!	!	!	!	!	!	!	!	!
8G/	16b-\LL	.	(16b-\LL	.	4G\	-di-	4B\	-di-	4b-\	-di-	4dd\	-di-	.	.	.	.
.	16dd\	.	16dd\	.	.	.	.	.	.	.	.	.	.	.	.	.
8G/J	16gg\	.	16gg\	.	.	.	.	.	.	.	.	.	.	.	.	.
.	16bb-\JJ	.	16bb-\JJ)	.	.	.	.	.	.	.	.	.	.	.	.	.
*tremolo	*	*	*	*	*	*	*	*	*	*	*	*	*	*	*	*
8F#X\L	16aa\LL	.	16aa\LL	.	4F#X\	-ca-	4c\	-ca-	4a\	-ca-	4dd\	-ca-	.	.	.	.
.	16dd\JJ	.	16dd\JJ	.	.	.	.	.	.	.	.	.	.	.	.	.
8F#X\	16r	.	16r	.	.	.	.	.	.	.	.	.	.	.	.	.
.	16f#X/	.	16f#X/	.	.	.	.	.	.	.	.	.	.	.	.	.
!	!	!	!LO:TX:a:t=P:problem=niejednoznaczny zapis łuku	!	!	!	!	!	!	!	!	!	!	!	!	!
8F#X\	(16a\LL	.	(16a\LL	.	8F#\	-bit	8c\	-bit	8a\	-bit	8dd\	-bit	.	.	.	.
.	16dd\	.	16dd\	.	.	.	.	.	.	.	.	.	.	.	.	.
!	!LO:SIC:v:s=16ff#\	!	!	!	!	!	!	!	!	!	!	!	!	!	!	!
8F#X\J	16ff\	.	16ff#X\	.	8F#\	in	8c\	in	8a\	in	8dd\	in	.	.	.	.
.	16aa\JJ)	.	16aa\JJ)	.	.	.	.	.	.	.	.	.	.	.	.	.
*Xtremolo	*	*	*	*	*	*	*	*	*	*	*	*	*	*	*	*
=4	=4	=4	=4	=4	=4	=4	=4	=4	=4	=4	=4	=4	=4	=4	=4	=4
!	!	!	!	!	!	!	!LO:SIC:v:s=4B-\	!	!	!	!	!	!	!	!	!
8G\L	16gg\LL	.	16gg\LL	.	4G\	na-	4B\	na-	4b-\	na-	4dd\	na-	1ryy	1ryy	1r	1r
.	16dd\JJ	.	16dd\JJ	.	.	.	.	.	.	.	.	.	.	.	.	.
8G\	16r	.	16r	.	.	.	.	.	.	.	.	.	.	.	.	.
.	16bb-\	.	16bb-\	.	.	.	.	.	.	.	.	.	.	.	.	.
8F#X\	16aa\LL	.	16aa\LL	.	4F#X\	-ti-	4c\	-ti-	4a\	-ti-	4dd\	-ti-	.	.	.	.
.	16dd\JJ	.	16dd\JJ	.	.	.	.	.	.	.	.	.	.	.	.	.
8F#\J	16r	.	16r	.	.	.	.	.	.	.	.	.	.	.	.	.
.	16aa\	.	16ccc\	.	.	.	.	.	.	.	.	.	.	.	.	.
!LO:TX:a:t=P:problem=mixed beam	!	!	!	!	!	!	!	!	!	!	!	!	!	!	!	!
8G\L	16gg\LL	.	(16bb-\LL	.	4G\	-o-	4.d\	-o-	(8b-\	-o-	8dd\	-o-	.	.	.	.
.	16bb-\JJ	.	16ddd\)	.	.	.	.	.	.	.	.	.	.	.	.	.
!	!	!	!	!	!	!	!	!	!	!	!LO:SIC:v:s=4b-\	!	!	!	!	!
8GG\	16b-\LL	.	(16gg\	.	.	.	.	.	4g\)	.	4b\	.	.	.	.	.
.	16dd\JJ	.	16bb-\JJ)	.	.	.	.	.	.	.	.	.	.	.	.	.
8D\	16dd\LL	.	16bb-\LL	.	8d\	.	.	.	.	.	.	.	.	.	.	.
.	16cc\	.	16aa\	.	.	.	.	.	.	.	.	.	.	.	.	.
8DD\J	16b-\	.	16gg\	.	8D/	-ni-	8d\	-ni-	8f#X\	-ni-	8a\	-ni-	.	.	.	.
!	!	!	!LO:TX:a:t=P:problem=szlaczek na 3 polu	!	!	!	!	!	!	!	!	!	!	!	!	!
!	!	!	!LO:TX:b:Bi:t=Verte Cito	!	!	!	!	!	!	!	!	!	!	!	!	!
.	16a\JJ	.	16ff#X\JJ	.	.	.	.	.	.	.	.	.	.	.	.	.
=5	=5	=5	=5	=5	=5	=5	=5	=5	=5	=5	=5	=5	=5	=5	=5	=5
!LO:TX:a:t=P:problem=mixed beam	!	!	!LO:TX:a:t=P:problem=niejednoznaczny zapis łuków w tt. 5-8	!	!	!	!	!	!	!	!	!	!	!	!	!
8GG\L	16b-\LL	.	(16gg\LL	.	4G\	-bus	4d\	-bus	4g\	-bus	4b\	-bus	1ryy	1ryy	2b-\	1gg
.	16dd\	.	16dd\	.	.	.	.	.	.	.	.	.	.	.	.	.
8G\	16b-\	.	16b-\	.	.	.	.	.	.	.	.	.	.	.	.	.
.	16dd\JJ	.	16dd\JJ)	.	.	.	.	.	.	.	.	.	.	.	.	.
8Fn\	16gg\LL	.	16gg\LL	.	4Fn\	im-	4d\	im-	4bn\	im-	4gg\	im-	.	.	.	.
.	16dd\	.	(16dd\	.	.	.	.	.	.	.	.	.	.	.	.	.
8F\J	16bbn\	.	16bbn\	.	.	.	.	.	.	.	.	.	.	.	.	.
.	16gg\JJ	.	16gg\JJ)	.	.	.	.	.	.	.	.	.	.	.	.	.
8En\L	(16ccc\LL	.	16ccc\LL	.	4En\	-ple-	4e\	-ple-	4cc\	-ple-	4gg\	-ple-	.	.	2cc\	.
.	16gg\	.	(16gg\	.	.	.	.	.	.	.	.	.	.	.	.	.
!	!LO:SIC:v:s=16een\	!	!	!	!	!	!	!	!	!	!	!	!	!	!	!
8E\	16ee-\	.	16een\	.	.	.	.	.	.	.	.	.	.	.	.	.
.	16gg\JJ)	.	16gg\JJ)	.	.	.	.	.	.	.	.	.	.	.	.	.
8C\	(16cc\LL	.	(16cc\LL	.	8C/	-bit	8e\	-bit	8cc\	-bit	8gg\	-bit	.	.	.	.
.	16ee-\	.	16ee\	.	.	.	.	.	.	.	.	.	.	.	.	.
8C\J	16gg\	.	16gg\	.	8C/	ru-	8e\	ru-	8cc\	ru-	8gg\	ru-	.	.	.	.
!	!LO:SIC:v:s=16een\JJ)	!	!	!	!	!	!	!	!	!	!	!	!	!	!	!
.	16ee-\JJ)	.	16ee\JJ)	.	.	.	.	.	.	.	.	.	.	.	.	.
=6	=6	=6	=6	=6	=6	=6	=6	=6	=6	=6	=6	=6	=6	=6	=6	=6
8F\L	(16ff\LL	.	(16ff\LL	.	(4F\	-i-	2c\	-i-	2a\	-i-	2ff\	-i-	1ryy	1ryy	2a\	1ff
.	16cc\	.	16cc\	.	.	.	.	.	.	.	.	.	.	.	.	.
8F\	16a\	.	16a\	.	.	.	.	.	.	.	.	.	.	.	.	.
.	16cc\JJ)	.	16cc\JJ)	.	.	.	.	.	.	.	.	.	.	.	.	.
8E-X\	(16ff\LL	.	(16ff\LL	.	4E-X\)	.	.	.	.	.	.	.	.	.	.	.
.	16cc\	.	16cc\	.	.	.	.	.	.	.	.	.	.	.	.	.
8E-\J	16aa\	.	16aa\	.	.	.	.	.	.	.	.	.	.	.	.	.
.	16ff\JJ)	.	16ff\JJ)	.	.	.	.	.	.	.	.	.	.	.	.	.
8D/L	(16bb-\LL	.	(16bb-\LL	.	4D\	-nas	4d\	-nas	4b-\	-nas	4ff\	-nas	.	.	2b-\	.
.	16ff\	.	16ff\	.	.	.	.	.	.	.	.	.	.	.	.	.
8D/	16dd\	.	16dd\	.	.	.	.	.	.	.	.	.	.	.	.	.
.	16ff\JJ)	.	16ff\JJ)	.	.	.	.	.	.	.	.	.	.	.	.	.
8BB-/	(16b-\LL	.	(16b-\LL	.	4BB-/	im-	4d\	im-	4b-\	im-	4ff\	im-	.	.	.	.
.	16dd\	.	16dd\	.	.	.	.	.	.	.	.	.	.	.	.	.
8BB-/J	16ff\	.	16ff\	.	.	.	.	.	.	.	.	.	.	.	.	.
.	16dd\JJ)	.	16dd\JJ)	.	.	.	.	.	.	.	.	.	.	.	.	.
=7	=7	=7	=7	=7	=7	=7	=7	=7	=7	=7	=7	=7	=7	=7	=7	=7
8F\L	(16dd\LL	.	16dd\LL	.	(4F\	-ple-	2c\	-ple-	2a\	-ple-	2ff\	-ple-	1ryy	1ryy	2cc\	2ee-\
.	16cc\JJ)	.	16cc\JJ	.	.	.	.	.	.	.	.	.	.	.	.	.
8F\	16r	.	16r	.	.	.	.	.	.	.	.	.	.	.	.	.
.	16aa\	.	16aa\	.	.	.	.	.	.	.	.	.	.	.	.	.
8A\	(16ff\LL	.	(16ff\LL	.	4A\)	.	.	.	.	.	.	.	.	.	.	.
.	16cc\	.	16cc\	.	.	.	.	.	.	.	.	.	.	.	.	.
8A\J	16ff\	.	16ff\	.	.	.	.	.	.	.	.	.	.	.	.	.
.	16ee-\JJ)	.	16ee-X\JJ)	.	.	.	.	.	.	.	.	.	.	.	.	.
!LO:TX:a:t=P:problem=mixed beam	!	!	!	!	!	!	!	!	!	!	!	!	!	!	!	!
8B-\L	(16ee-\LL	.	16ee-\LL	.	4B-\	-bit	4d\	-bit	4b-\	-bit	4ff\	-bit	.	.	4b-\	4dd\
.	16dd\JJ)	.	16dd\JJ	.	.	.	.	.	.	.	.	.	.	.	.	.
8B-\	16r	.	16r	.	.	.	.	.	.	.	.	.	.	.	.	.
.	16dd\	.	16dd\	.	.	.	.	.	.	.	.	.	.	.	.	.
8BB-\	(16b-\LL	.	(16b-\LL	.	4BB-/	ru-	4d\	ru-	4b-\	ru-	4ff\	ru-	.	.	4r	4r
.	16dd\JJ)	.	16dd\	.	.	.	.	.	.	.	.	.	.	.	.	.
8BB-\J	(16ff\LL	.	16ff\	.	.	.	.	.	.	.	.	.	.	.	.	.
.	16bb-\JJ)	.	16bb-\JJ)	.	.	.	.	.	.	.	.	.	.	.	.	.
=8	=8	=8	=8	=8	=8	=8	=8	=8	=8	=8	=8	=8	=8	=8	=8	=8
!LO:TX:a:t=P:problem=mixed beam	!	!	!	!	!	!	!	!	!	!	!	!	!	!	!LO:TX:a:Bi:t=Solo	!LO:TX:a:Bi:t=Solo.
!	!	!	!	!	!	!	!	!	!	!	!LO:SIC:v:s=4ee-\	!	!	!	!	!
8E-\L	(16gg\LL	.	(16gg\LL	.	(4E-\	-i-	(4g\	-i-	4cc\	-i-	4ee\	-i-	1ryy	1ryy	2r	2r
.	16ee-\	.	16ee-\	.	.	.	.	.	.	.	.	.	.	.	.	.
8E-\	16gg\	.	16gg\	.	.	.	.	.	.	.	.	.	.	.	.	.
.	16ee-\JJ)	.	16ee-\JJ)	.	.	.	.	.	.	.	.	.	.	.	.	.
8F\	16dd\LL	.	(16dd\LL	.	4F\)	.	4f\)	.	8b-\L	.	8dd\L	.	.	.	.	.
.	16bb-\	.	16bb-\	.	.	.	.	.	.	.	.	.	.	.	.	.
8FF\J	16cc\	.	16cc\	.	.	.	.	.	8a\J	.	8cc\J	.	.	.	.	.
.	16aa\JJ	.	16aa\JJ)	.	.	.	.	.	.	.	.	.	.	.	.	.
!	!LO:TX:a:t=P:problem=mixed beam	!	!LO:TX:a:t=P:problem=mixed beam	!	!	!	!	!	!	!	!	!	!	!	!	!
4BB-/	8bb-\L	p	8bb-\L	.	4BB-/	-nas	4f\	-nas	4b-\	-nas,	4dd\	-nas	.	.	8dd\	16bb-\LL
.	.	.	.	.	.	.	.	.	.	.	.	.	.	.	.	16ff\JJ
!	!	!	!	!LO:DY:a	!	!	!	!	!	!	!	!	!	!	!	!
.	8B-\	.	8B-\	p	.	.	.	.	.	.	.	.	.	.	4dd\	4ff\
4r	8a\	.	8f\	.	4r	.	4r	.	4r	.	4r	.	.	.	.	.
.	8a\J	.	8f\J	.	.	.	.	.	.	.	.	.	.	.	8cc\	8ee-\
=9	=9	=9	=9	=9	=9	=9	=9	=9	=9	=9	=9	=9	=9	=9	=9	=9
*	*tremolo	*	*tremolo	*	*	*	*	*	*	*	*	*	*	*	*	*
!LO:TX:a:Bi:t=1.	!	!	!	!	!LO:TX:a:Bi:t=5	!	!LO:TX:a:Bi:t=5	!	!LO:TX:a:Bi:t=5.	!	!LO:TX:b:Bi:t=2	!	!	!	!	!
1r	8B-/L	.	8B-/L	.	1r	.	1r	.	1r	.	1r	.	1ryy	1ryy	(32b-\LLL	(32dd\LLL
.	.	.	.	.	.	.	.	.	.	.	.	.	.	.	32a\	32cc\
.	.	.	.	.	.	.	.	.	.	.	.	.	.	.	32b-\	32dd\
.	.	.	.	.	.	.	.	.	.	.	.	.	.	.	32cc\JJ)	32ee-\JJ)
.	8B-/	.	8B-/	.	.	.	.	.	.	.	.	.	.	.	8dd`\J	8ff\J
.	8B-/	.	8B-/	.	.	.	.	.	.	.	.	.	.	.	16r	16r
.	.	.	.	.	.	.	.	.	.	.	.	.	.	.	16dd\LL	16ff\LL
.	8B-/J	.	8B-/J	.	.	.	.	.	.	.	.	.	.	.	16b-\	16dd\
.	.	.	.	.	.	.	.	.	.	.	.	.	.	.	16dd\JJ	16ff\JJ
.	8f/L	.	8f/L	.	.	.	.	.	.	.	.	.	.	.	(16dd\LL	16ff\LL
.	.	.	.	.	.	.	.	.	.	.	.	.	.	.	16cc\J)	16ee-\J
.	8f/	.	8f/	.	.	.	.	.	.	.	.	.	.	.	8cc`\J	8ee-\J
.	8f/	.	8f/	.	.	.	.	.	.	.	.	.	.	.	16r	16r
.	.	.	.	.	.	.	.	.	.	.	.	.	.	.	16a\LL	16cc\LL
.	8f/J	.	8f/J	.	.	.	.	.	.	.	.	.	.	.	16b-\	16dd\
.	.	.	.	.	.	.	.	.	.	.	.	.	.	.	16cc\JJ	16ee-\JJ
=10	=10	=10	=10	=10	=10	=10	=10	=10	=10	=10	=10	=10	=10	=10	=10	=10
2r	8B-/L	.	8B-/L	.	1r	.	1r	.	1r	.	1r	.	1ryy	1ryy	(16cc\LL	16ee-\LL
.	.	.	.	.	.	.	.	.	.	.	.	.	.	.	16b-\J)	16dd\J
.	8B-/	.	8B-/	.	.	.	.	.	.	.	.	.	.	.	8b-'\J	8dd\J
.	8B-/	.	8B-/	.	.	.	.	.	.	.	.	.	.	.	8dd\L	8bb-\L
.	8B-/J	.	8B-/J	.	.	.	.	.	.	.	.	.	.	.	8ff\J	8aa-X\J
*	*Xtremolo	*	*Xtremolo	*	*	*	*	*	*	*	*	*	*	*	*	*
8r	8e-/L	.	8e-/L	.	.	.	.	.	.	.	.	.	.	.	8ee-\L	8gg\L
!LO:TX:a:t=P:problem=mixed beam	!	!	!	!	!	!	!	!	!	!	!	!	!	!	!LO:TX:a:t=P:problem=klamra łukowa z numerem	!LO:TX:a:t=P:problem=klamra łukowa z numerem
8E-\L	8e-/	.	8e-/	.	.	.	.	.	.	.	.	.	.	.	24ee-\L	24gg\L
.	.	.	.	.	.	.	.	.	.	.	.	.	.	.	24dd\	24ff\
.	.	.	.	.	.	.	.	.	.	.	.	.	.	.	24cc\JJ	24ee-\JJ
8F\	8f/	.	8f/	.	.	.	.	.	.	.	.	.	.	.	8b-\L	8dd\L
8FF\J	8f/J	.	8f/J	.	.	.	.	.	.	.	.	.	.	.	8a\J	8cc\J
=11	=11	=11	=11	=11	=11	=11	=11	=11	=11	=11	=11	=11	=11	=11	=11	=11
*	*tremolo	*	*tremolo	*	*	*	*	*	*	*	*	*	*	*	*	*
!	!	!	!	!	!	!	!	!	!	!	!LO:SIC:v:s=4b-\	!	!	!	!	!
!LO:TX:a:t=P:problem=mixed beam	!	!	!	!	!	!	!	!	!	!	!LO:TX:a:t=Solo	!	!	!	!	!
8BB-\L	8B-/L	.	8d/L	.	1r	.	1r	.	1r	.	4b\	Ju-	1ryy	1ryy	4b-\	4b-\
8B-\	8B-/	.	8d/	.	.	.	.	.	.	.	.	.	.	.	.	.
!	!	!	!	!	!	!	!	!	!	!	!LO:SIC:v:s=32b-\LLL	!	!	!	!	!
8B-\	8B-/	.	8d/	.	.	.	.	.	.	.	32b\LLL	.	.	.	4r	4r
.	.	.	.	.	.	.	.	.	.	.	32cc\	.	.	.	.	.
.	.	.	.	.	.	.	.	.	.	.	32dd\	.	.	.	.	.
!	!	!	!	!	!	!	!	!	!	!	!LO:SIC:v:s=32ee-\JJJ	!	!	!	!	!
.	.	.	.	.	.	.	.	.	.	.	32ee\JJJ	.	.	.	.	.
8B-\J	8B-/J	.	8d/J	.	.	.	.	.	.	.	32ff\LLL	.	.	.	.	.
.	.	.	.	.	.	.	.	.	.	.	32dd\JJJ	.	.	.	.	.
.	.	.	.	.	.	.	.	.	.	.	32cc\LLL	-di-	.	.	.	.
!	!	!	!	!	!	!	!	!	!	!	!LO:SIC:v:s=32b-\JJJ	!	!	!	!	!
.	.	.	.	.	.	.	.	.	.	.	32b\JJJ	.	.	.	.	.
*tremolo	*	*	*	*	*	*	*	*	*	*	*	*	*	*	*	*
!	!	!	!	!	!	!	!	!	!	!	!LO:SIC:v:s=16b-\LL	!	!	!	!	!
8F\L	8A/L	.	8c/L	.	.	.	.	.	.	.	16b\LL	-ca-	.	.	2r	2r
.	.	.	.	.	.	.	.	.	.	.	16a\JJ	.	.	.	.	.
8F\	8A/	.	8c/	.	.	.	.	.	.	.	4a\	-bit	.	.	.	.
8F\	8A/	.	8c/	.	.	.	.	.	.	.	.	.	.	.	.	.
8F\J	8A/J	.	8c/J	.	.	.	.	.	.	.	8cc\	in	.	.	.	.
*Xtremolo	*	*	*	*	*	*	*	*	*	*	*	*	*	*	*	*
=12	=12	=12	=12	=12	=12	=12	=12	=12	=12	=12	=12	=12	=12	=12	=12	=12
!LO:TX:a:t=P:problem=mixed beam	!	!	!	!	!	!	!	!	!	!	!LO:SIC:v:s=32b-\LLL	!	!	!	!LO:TX:a:Bi:t=3.	!LO:TX:a:Bi:t=3.
8B-\L	8B-/L	.	8d/L	.	1r	.	1r	.	1r	.	32b\LLL	na-	1ryy	1ryy	1r	1r
.	.	.	.	.	.	.	.	.	.	.	32cc\	.	.	.	.	.
.	.	.	.	.	.	.	.	.	.	.	32dd\	.	.	.	.	.
!	!	!	!	!	!	!	!	!	!	!	!LO:SIC:v:s=32ee-\JJJ	!	!	!	!	!
.	.	.	.	.	.	.	.	.	.	.	32ee\JJJ	.	.	.	.	.
8B-\	8B-/	.	8d/	.	.	.	.	.	.	.	4ff\	-ti-	.	.	.	.
8BB-\	8B-/	.	8d/	.	.	.	.	.	.	.	.	.	.	.	.	.
8BB-\J	8B-/J	.	8d/J	.	.	.	.	.	.	.	16dd\LL	.	.	.	.	.
!	!	!	!	!	!	!	!	!	!	!	!LO:SIC:v:s=16b-\JJ	!	!	!	!	!
.	.	.	.	.	.	.	.	.	.	.	16b\JJ	.	.	.	.	.
!LO:TX:a:t=P:problem=mixed beam	!	!	!	!	!	!	!	!	!	!	!LO:SIC:v:s=32b-\LLL	!	!	!	!	!
8F\L	8A/L	.	8c/L	.	.	.	.	.	.	.	32b\LLL	-o-	.	.	.	.
.	.	.	.	.	.	.	.	.	.	.	32a\JJJ	.	.	.	.	.
.	.	.	.	.	.	.	.	.	.	.	32dd\LLL	-ni-	.	.	.	.
.	.	.	.	.	.	.	.	.	.	.	32cc\JJJ	.	.	.	.	.
8FF\	8A/	.	8c/	.	.	.	.	.	.	.	8cc\	-bus	.	.	.	.
8F\	8A/	.	8c/	.	.	.	.	.	.	.	16r	.	.	.	.	.
.	.	.	.	.	.	.	.	.	.	.	16cc\	in	.	.	.	.
!	!	!	!	!	!	!	!	!	!	!	!	!LO:MO:mod=Ju-	!	!	!	!
8A\J	8A/J	.	8c/J	.	.	.	.	.	.	.	16ff\	.	.	.	.	.
!	!	!	!	!	!	!	!	!	!	!	!LO:SIC:v:s=16ee-\	!	!	!	!	!
.	.	.	.	.	.	.	.	.	.	.	16ee\	di-	.	.	.	.
*	*Xtremolo	*	*Xtremolo	*	*	*	*	*	*	*	*	*	*	*	*	*
=13	=13	=13	=13	=13	=13	=13	=13	=13	=13	=13	=13	=13	=13	=13	=13	=13
!	!	!	!	!	!	!	!	!	!	!	!LO:SIC:v:s=32ee-\LLL	!	!	!	!	!
!	!	!	!	!	!	!	!	!	!	!	!LO:TX:a:t=P:skreślenia:problem	!	!	!	!	!
8B-\L	8B-/L	.	8d/L	.	1r	.	1r	.	1r	.	32ee\LLL	-ca-	1ryy	1ryy	1r	1r
.	.	.	.	.	.	.	.	.	.	.	32dd\	.	.	.	.	.
.	.	.	.	.	.	.	.	.	.	.	32cc\	.	.	.	.	.
.	.	.	.	.	.	.	.	.	.	.	32dd\JJJ	.	.	.	.	.
!	!	!	!	!	!	!	!	!	!	!	!LO:SIC:v:s=8b-\	!	!	!	!	!
8d\	8B-/	.	8f/	.	.	.	.	.	.	.	8b\	-bit	.	.	.	.
8F\	8A/	.	8A/	.	.	.	.	.	.	.	16r	.	.	.	.	.
*	*	*	*	*	*	*	*	*	*	*	*	*ij	*	*	*	*
.	.	.	.	.	.	.	.	.	.	.	32cc\LLL	Ju-	.	.	.	.
.	.	.	.	.	.	.	.	.	.	.	32ff\JJJ	.	.	.	.	.
!	!	!	!	!	!	!	!	!	!	!	!LO:SIC:v:s=8ee-\	!	!	!	!	!
8A\J	8c/J	.	8c/J	.	.	.	.	.	.	.	8ee\	-di-	.	.	.	.
!	!LO:N:vis=16	!	!	!	!	!	!	!	!	!	!LO:SIC:v:s=32ee-\LLL	!	!	!	!	!
8B-\L	8d/L	.	8d/L	.	.	.	.	.	.	.	32ee\LLL	-ca-	.	.	.	.
.	.	.	.	.	.	.	.	.	.	.	32dd\	.	.	.	.	.
.	.	.	.	.	.	.	.	.	.	.	32cc\	.	.	.	.	.
.	.	.	.	.	.	.	.	.	.	.	32dd\JJJ	.	.	.	.	.
!	!LO:N:vis=16	!	!	!	!	!	!	!	!	!	!LO:SIC:v:s=8b-\	!	!	!	!	!
8d\	8f/	.	8f/	.	.	.	.	.	.	.	8b\	-bit	.	.	.	.
*	*	*	*	*	*	*	*	*	*	*	*	*Xij	*	*	*	*
!	!LO:N:vis=16	!	!	!	!	!	!	!	!	!	!	!	!	!	!	!
8F\	8A/	.	8A/	.	.	.	.	.	.	.	16r	.	.	.	.	.
.	.	.	.	.	.	.	.	.	.	.	16cc\	in	.	.	.	.
!	!LO:N:vis=16	!	!	!	!	!	!	!	!	!	!	!	!	!	!	!
8A\J	8c/J	.	8c/J	.	.	.	.	.	.	.	16dd\	na-	.	.	.	.
!	!	!	!	!	!	!	!	!	!	!	!LO:SIC:v:s=16ee-\	!	!	!	!	!
.	.	.	.	.	.	.	.	.	.	.	16ee\	-ti-	.	.	.	.
=14	=14	=14	=14	=14	=14	=14	=14	=14	=14	=14	=14	=14	=14	=14	=14	=14
!	!	!	!	!	!	!	!	!	!LO:TX:a:Bi:t=Solo.	!	!	!	!	!	!	!
8B-\	8d/	.	8d/	.	2r	.	2r	.	2r	.	16dd\LL	-o-	1ryy	1ryy	1r	1r
!	!	!	!	!	!	!	!	!	!	!	!LO:SIC:v:s=16b-\	!	!	!	!	!
.	.	.	.	.	.	.	.	.	.	.	16b\	.	.	.	.	.
8r	8r	.	8r	.	.	.	.	.	.	.	16bn\	.	.	.	.	.
.	.	.	.	.	.	.	.	.	.	.	16cc\JJ	.	.	.	.	.
4r	4r	.	4r	.	.	.	.	.	.	.	16cc#X\LL	.	.	.	.	.
.	.	.	.	.	.	.	.	.	.	.	16dd\JJ	.	.	.	.	.
.	.	.	.	.	.	.	.	.	.	.	16ee-X\LL	-ni-	.	.	.	.
.	.	.	.	.	.	.	.	.	.	.	16een\JJ	.	.	.	.	.
2r	2r	.	2r	.	8r	.	8r	.	8r	.	8ff\	-bus	.	.	.	.
.	.	.	.	.	16r	.	16r	.	16r	.	16r	.	.	.	.	.
.	.	.	.	.	16F\	im-	16F/	im-	16f\	im-	16f/	im-	.	.	.	.
.	.	.	.	.	(16f\LL	-ple-	16f\LL	-ple-	(16f\LL	-ple-	16ff\	-ple-	.	.	.	.
.	.	.	.	.	16en\JJ)	.	16en\JJ	.	16en\JJ)	.	16ee\	.	.	.	.	.
.	.	.	.	.	16f\	-bit	16f\LL	-bit	16f\	-bit	16ff\	-bit	.	.	.	.
.	.	.	.	.	16e\	ru-	16e\JJ	ru-	16e\	ru-	16ee\	ru-	.	.	.	.
=15	=15	=15	=15	=15	=15	=15	=15	=15	=15	=15	=15	=15	=15	=15	=15	=15
!	!	!	!LO:TX:a:Bi:t=1.	!	!	!	!	!	!	!	!LO:N:vis=4	!	!	!	!	!
1r;	1r;	.	1r	.	8f\	-i-	8f\	-i-	8f\	-i-	8ff\	-i-	1ryy	1ryy	1r;	1r;
.	.	.	.	.	16F\	-nas	16F/	-nas	16f\	-nas	16f/	-nas	.	.	.	.
.	.	.	.	.	16F\	im-	16F/	im-	16f\	im-	16f/	im-	.	.	.	.
.	.	.	.	.	(16f\LL	-ple-	16f\LL	-ple-	16f\LL	-ple-	16ff\LL	-ple-	.	.	.	.
.	.	.	.	.	16en\JJ)	.	16en\JJ	.	16en\JJ	.	16een\JJ	.	.	.	.	.
.	.	.	.	.	16f\	-bit	16f\	-bit	16f\	-bit	16ff\	-bit	.	.	.	.
*	*	*	*	*	*	*	*16\right	*	*	*	*	*	*	*	*	*
.	.	.	.	.	16e\	ru-	16e\	ru-	16e\	ru-	16ee\	ru-	.	.	.	.
*	*	*	*	*	*	*	*16\left	*	*	*	*	*	*	*	*	*
*	*	*	*	*	*	*	*8\right	*	*	*	*	*	*	*	*	*
.	.	.	.	.	8f\	-i-	8f\	-i-	8f\	-i-	8ff\	-i-	.	.	.	.
*	*	*	*	*	*	*	*8\right	*	*	*	*	*	*	*	*	*
.	.	.	.	.	8F;\	-nas	8F;/	-nas	8f;\	-nas,	8f;/	-nas,	.	.	.	.
.	.	.	.	.	4r	.	4r	.	4r	.	4r	.	.	.	.	.
=16	=16	=16	=16	=16	=16	=16	=16	=16	=16	=16	=16	=16	=16	=16	=16	=16
*tremolo	*	*	*	*	*	*	*	*	*	*	*	*	*	*	*	*
!	!	!	!	!	!	!	!	!	!LO:TX:a:Bi:t=Tutti.:rj	!	!LO:TX:a:Bi:t=Tutti.:rj	!	!	!	!	!
!LO:TX:a:Bi:t=Tutti.	!	!	!LO:TX:a:t=P:problem=niejednoznaczny zapis łuków w tt. 16-19	!	!	!	!	!	!	!	!	!	!	!	!LO:TX:a:Bi:t=5.	!LO:TX:a:Bi:t=5.
8F\L	(16ff\LL	f	(16ff\LL	.	4F\	Con-	4c\	Con-	4a\	Con-	4ff\	Con-	1ryy	1ryy	1r	1r
.	16cc\)	.	16cc\	.	.	.	.	.	.	.	.	.	.	.	.	.
8F\	(16a\	.	16a\	.	.	.	.	.	.	.	.	.	.	.	.	.
.	16cc\JJ)	.	16cc\JJ)	.	.	.	.	.	.	.	.	.	.	.	.	.
!	!	!	!	!	!	!LO:MO:mod=-quas-	!	!LO:MO:mod=-quas-	!	!LO:MO:mod=-quas-	!	!LO:MO:mod=-quas-	!	!	!	!
8F\	(16ff\LL	.	(16ff\LL	.	4F\	-qua-	4c\	-qua-	4a\	-qua-	4ff\	-qua-	.	.	.	.
.	16cc\)	.	16cc\	.	.	.	.	.	.	.	.	.	.	.	.	.
8F\J	(16aa\	.	16aa\	.	.	.	.	.	.	.	.	.	.	.	.	.
.	16ff\JJ)	.	16ff\JJ)	.	.	.	.	.	.	.	.	.	.	.	.	.
*Xtremolo	*	*	*	*	*	*	*	*	*	*	*	*	*	*	*	*
!	!	!	!	!	!	!	!LO:SIC:v:s=4B-\	!	!	!	!	!	!	!	!	!
8B-\L	(16bb-\LL	.	16bb-\LL	.	4B-\	-sa-	4B\	-sa-	4dd\	-sa-	4ff\	-sa-	.	.	.	.
.	16ff\JJ)	.	16ff\JJ	.	.	.	.	.	.	.	.	.	.	.	.	.
8B-\	16r	.	16r	.	.	.	.	.	.	.	.	.	.	.	.	.
.	16ff'\	.	16ff\	.	.	.	.	.	.	.	.	.	.	.	.	.
8A\	(16dd\LL	.	16dd\LL	.	4A\	-bit	4d\	-bit	4cc\	-bit	4ff#X\	-bit	.	.	.	.
.	16ff#X\JJ)	.	16ff#X\JJ	.	.	.	.	.	.	.	.	.	.	.	.	.
8A\J	16r	.	16r	.	.	.	.	.	.	.	.	.	.	.	.	.
.	16ff#\	.	16ff#\	.	.	.	.	.	.	.	.	.	.	.	.	.
=17	=17	=17	=17	=17	=17	=17	=17	=17	=17	=17	=17	=17	=17	=17	=17	=17
*tremolo	*	*	*	*	*	*	*	*	*	*	*	*	*	*	*	*
8G\L	(16gg\LL	.	16gg\LL	.	8.G\	Ca-	8.d\	Ca-	8.b-\	ca-	8.gg\	ca-	1ryy	1ryy	1r	1r
.	16dd\	.	16dd\	.	.	.	.	.	.	.	.	.	.	.	.	.
8G\	16bb-\	.	16bb-\	.	.	.	.	.	.	.	.	.	.	.	.	.
.	16gg\JJ)	.	16gg\JJ	.	16G\	-pi-	16d\	-pi-	16b-\	-pi-	16gg\	-pi-	.	.	.	.
8G\	(16dd\LL	.	(16dd\LL	.	8G\	-ta	8d\	-ta	8b-\	-ta	8gg\	-ta	.	.	.	.
.	16b-\	.	16b-\	.	.	.	.	.	.	.	.	.	.	.	.	.
8G\J	16gg\	.	16gg\	.	8G\	in	8d\	in	8b-\	in	8dd\	in	.	.	.	.
!	!LO:TX:a:t=P:problem=niezidentyfikowany symbol nad nutą	!	!	!	!	!	!	!	!	!	!	!	!	!	!	!
.	16dd\JJ)	.	16dd\JJ)	.	.	.	.	.	.	.	.	.	.	.	.	.
*Xtremolo	*	*	*	*	*	*	*	*	*	*	*	*	*	*	*	*
!LO:TX:a:t=P:problem=mixed beam	!	!	!	!	!	!	!	!	!	!	!	!	!	!	!	!
8G\L	16b-\LL	.	16b-\LL	.	4G\	ter-	(4d\	ter-	4b-\	ter-	4dd\	.	.	.	.	.
.	16gg\JJ	.	16gg\JJ	.	.	.	.	.	.	.	.	.	.	.	.	.
8G\	16r	.	16r	.	.	.	.	.	.	.	.	.	.	.	.	.
.	16b-\	.	16dd\	.	.	.	.	.	.	.	.	.	.	.	.	.
!	!	!	!	!	!	!	!LO:SIC:v:s=4e-\)	!	!	!	!	!	!	!	!	!
8C\	(16b-/LL	.	(16dd\LL	.	8C/L	.	4e\)	.	(8a\L	.	8cc\L	ter-	.	.	.	.
.	16a/)	.	16cc\	.	.	.	.	.	.	.	.	.	.	.	.	.
!	!	!	!	!	!	!	!	!	!	!	!LO:SIC:v:s=8b-\J	!	!	!	!	!
8C#X\J	(16a/	.	16cc\	.	8C#X/J	.	.	.	8g\J)	.	8b\J	.	.	.	.	.
.	16g/JJ)	.	16b-\JJ)	.	.	.	.	.	.	.	.	.	.	.	.	.
=18	=18	=18	=18	=18	=18	=18	=18	=18	=18	=18	=18	=18	=18	=18	=18	=18
*tremolo	*	*	*	*	*	*	*	*	*	*	*	*	*	*	*	*
8D\L	16f#X/LL	.	16a\LL	.	4D\	-ra	4d\	-ra	4f#X\	-ra	4a\	-ra	1ryy	1ryy	1r	1r
.	16a/JJ	.	16cc\JJ	.	.	.	.	.	.	.	.	.	.	.	.	.
8D\	16r	.	16r	.	.	.	.	.	.	.	.	.	.	.	.	.
!	!LO:SIC:v:s=16ff#\	!	!	!	!	!	!	!	!	!	!	!	!	!	!	!
.	16ff\	.	16ff#X\	.	.	.	.	.	.	.	.	.	.	.	.	.
8D\	(16aa\LL	.	(16aa\LL	.	4D\	in	4d\	mul-	4a\	mul-	4ff#X\	in	.	.	.	.
.	16ff\	.	16ff#\	.	.	.	.	.	.	.	.	.	.	.	.	.
8D\J	16dd\	.	16dd\	.	.	.	.	.	.	.	.	.	.	.	.	.
.	16cc\JJ)	.	16cc\JJ)	.	.	.	.	.	.	.	.	.	.	.	.	.
8D\L	(16b-\LL	.	16b-\LL	.	2D\	ter-	2d\	-to-	2cc\	-to-	2gg\	ter-	.	.	.	.
.	16dd\JJ)	.	16dd\JJ	.	.	.	.	.	.	.	.	.	.	.	.	.
8D\	16r	.	16r	.	.	.	.	.	.	.	.	.	.	.	.	.
.	16gg\	.	16gg\	.	.	.	.	.	.	.	.	.	.	.	.	.
8D\	(16bb-\LL	.	(16bb-\LL	.	.	.	.	.	.	.	.	.	.	.	.	.
.	16gg\	.	16gg\	.	.	.	.	.	.	.	.	.	.	.	.	.
8D\J	16dd\	.	16dd\	.	.	.	.	.	.	.	.	.	.	.	.	.
.	16b-\JJ)	.	16b-\JJ)	.	.	.	.	.	.	.	.	.	.	.	.	.
=19	=19	=19	=19	=19	=19	=19	=19	=19	=19	=19	=19	=19	=19	=19	=19	=19
8D\L	(16a/LL	.	16a\LL	.	2D\	.	2d\	.	2a\	.	2ff#X\	.	1ryy	1ryy	1r	1r
.	16cc/JJ)	.	16cc\JJ	.	.	.	.	.	.	.	.	.	.	.	.	.
8D\	16r	.	16r	.	.	.	.	.	.	.	.	.	.	.	.	.
.	16ff#X\	.	16ff#X\	.	.	.	.	.	.	.	.	.	.	.	.	.
8D\	16aa'\LL	.	16aa\LL	.	.	.	.	.	.	.	.	.	.	.	.	.
.	(16ff#\	.	(16ff#\	.	.	.	.	.	.	.	.	.	.	.	.	.
8D\J	16dd\	.	16dd\	.	.	.	.	.	.	.	.	.	.	.	.	.
.	16cc\JJ)	.	16cc\JJ)	.	.	.	.	.	.	.	.	.	.	.	.	.
*Xtremolo	*	*	*	*	*	*	*	*	*	*	*	*	*	*	*	*
!LO:TX:a:t=P:problem=mixed beam	!	!	!	!	!	!	!	!	!	!	!	!	!	!	!	!
8G\L	(16b-\LL	.	(16b-\LL	.	8G\	-ra	8d\	-rum	8b-\	-rum	8gg\	-ra	.	.	.	.
.	16dd\	.	16dd\	.	.	.	.	.	.	.	.	.	.	.	.	.
8GG\J	16b-\	.	16gg\)	.	8GG/	mul-	8d\	mul-	8b-\	mul-	8gg\	mul-	.	.	.	.
.	16dd\JJ)	.	16bb-\JJ	.	.	.	.	.	.	.	.	.	.	.	.	.
!LO:TX:a:t=P:problem=mixed beam	!	!	!	!	!	!	!	!	!	!	!	!	!	!	!	!
8D\L	(16dd\LL	.	16bb-\LL	.	4D\	-to-	4d\	-to-	(8b-\L	-to-	8gg\L	-to-	.	.	.	.
.	16cc\	.	(16aa\	.	.	.	.	.	.	.	.	.	.	.	.	.
8DD\J	16b-\	.	16gg\	.	.	.	.	.	8a\J)	.	8ff#X\J	.	.	.	.	.
.	16a\JJ)	.	16ff#X\JJ)	.	.	.	.	.	.	.	.	.	.	.	.	.
=20	=20	=20	=20	=20	=20	=20	=20	=20	=20	=20	=20	=20	=20	=20	=20	=20
*tremolo	*	*	*	*	*	*	*	*	*	*	*	*	*	*	*	*
8GG/L	8b-/	.	16gg\LL	.	4GG/	-rum.	4d\	-rum	4b-\	-rum.	4gg\	-rum	1ryy	1ryy	1r	1r
.	.	.	16dd\JJ	.	.	.	.	.	.	.	.	.	.	.	.	.
8GG/	16r	.	16r	.	.	.	.	.	.	.	.	.	.	.	.	.
.	16b-/	.	16dd\	.	.	.	.	.	.	.	.	.	.	.	.	.
8GG/	(16b-/LL	.	16dd\LL	.	4r	.	4r	.	4r	.	4r	.	.	.	.	.
.	16cc/	.	16ee-\	.	.	.	.	.	.	.	.	.	.	.	.	.
8GG/J	16cc/	.	16ee-\	.	.	.	.	.	.	.	.	.	.	.	.	.
.	16a/JJ)	.	16ff#X\JJ	.	.	.	.	.	.	.	.	.	.	.	.	.
*Xtremolo	*	*	*	*	*	*	*	*	*	*	*	*	*	*	*	*
!LO:TX:a:t=P:problem=mixed beam	!	!	!	!	!	!	!	!	!	!	!	!	!	!	!	!
8GG\L	8bn\L	.	8gg\L	.	2r	.	2r	.	2r	.	2r	.	.	.	.	.
8G\	8b\	.	8gg\	.	.	.	.	.	.	.	.	.	.	.	.	.
8GG\J	8b\J	.	8gg\J	.	.	.	.	.	.	.	.	.	.	.	.	.
8r	8r	.	8r	.	.	.	.	.	.	.	.	.	.	.	.	.
==	==	==	==	==	==	==	==	==	==	==	==	==	==	==	==	==
*-	*-	*-	*-	*-	*-	*-	*-	*-	*-	*-	*-	*-	*-	*-	*-	*-
!!!system-decoration: [(s1,s2)][(s3,s4)][(s5,s6,s7,s8)][(s9,s10)]s11
!!!RDF**kern: > = above
!!!RDF**kern: < = below
!!!RDF**dynam: > = "dim", fontstyle= "bold-italic"
!!!RDF**dynam: < = "cresc", fontstyle= "bold-italic"
!!!RDF**kern: | = vertical stroke
!!!RDF**kern: N = linked
!!!RDF**kern: i = editorial accidental
!!!RDF**kern: l = terminal long
!!!ENC: Andrzej Kubiczek
!!!END: 2020-07-07
!!!EED: Wojciech Jakubiak-Danek
!!!EEV: 2021-12-29
